X:1
T:Französische Suite
T:Menuet II
T:Menuet II 
T:Französische Suite
T:Bach, Johann Sebastian
T:Nr 1 D-minor Nr 4 
T:Oli 2020
T:Oli 2020
C:Bach, Johann Sebastian
Z:Oli 2020
Z:Oli 2020
%%score { ( 1 2 ) | ( 3 4 ) }
L:1/8
Q:1/4=90
M:3/4
K:F
V:1 treble nm="Piano"
V:2 treble 
V:3 bass 
V:4 bass 
V:1
!p!"^T" A2 !2!A3 G/A/ | BcdBc!3
1
!A | !2
1
!G2 c3 B | AGBAGF | d6- | d6- | dd^c=B!5!AG | FEGFED | %8
!mf! A2 !4
1
!A3 !2!G/!4!A/ | !3!BcdBcA | G2 !34
1
!G3 !2!F/!4!G/ | !5!A!4!BcABG | F2 !3!F3 E/F/ | %13
 G!5!A!4!BAB!2!G | !5!A2 GF!2
1
!EF | D6 ||!p! AGFGAB | cGABc!2!B | !3!c!5!_edcBA | BAcBAG | %20
 ^c2 Pc3 =B/c/ | d2 !3!d3 !1!^c/!4!d/ | !3!e!4!f!5!ge!4
1
!f!3!d |{f} !54
2
!e2 !1!d!4!^c=BA | %24
 A2 A3 !2!G/!4!A/ | BcdBcA | G2 c3 B | AGBAGF | d6- | d6- | dd!4!^c=B!2!A!4!G | !3!FEGFED | %32
 A2 !>!A3 !2!G/!4!A/ | !3!BcdBcA | G2 G3 !2!F/!4!G/ | !3!ABcABG | F2 F3 E/F/ | GA!4!BAB!2!G | %38
 !5
1
!A2 GFEF | !fermata!D6 |] %40
V:2
 F2 x4 | G4- GF | E2 E4 | F4 z2 | !^!F2 !12!F3 !2!E/F/ | !2!GABG!3!A!2!F | E6 | D4 z2 | F2 F4- | %9
 F6- | F2 E4- | E6- | E2 D4- | D2 ^C4 | D4 ^C2 | D6 || x6 | x6 | x6 | x6 | E2 E4 | A2 A4- | %22
 A2 ^c2 d2 | ^c2 z2 z2 | F2 x4 | G4- GF | E2 E4 | F4 z2 | F2 F3 E/F/ | GABG!3!A!2!F | E6 | D4 z2 | %32
 F2 F4- | F6- | F2 E4- | E6- | E2 D4- | D2 ^C4 | D4 ^C2 | D6 |] %40
V:3
 x2 F4 | !4!B,2 !4!A,G,A,B, | C2 !1!C,B,,A,,G,, | !5!F,,2 !4!G,,2 !3!A,,2 | %4
 !4!B,,F,B,A,!3!G,!1!F, | !2!E,!4!^C,D,E,F,!2!G, | A,2 A,,2 A,2 |!<(! D,2 F,,2 A,,2!<)! | %8
 D,,A,,D,C,B,,A,, | G,,A,,B,,G,,A,,B,, | !1!C,!2!G,CB,A,G, | F,G,A,F,G,A, | %12
 B,!tenuto!CB,!1!A,G,F, | E,F,G,F,G,E, | F,2 G,2 A,2 | D,2 A,,2 D,,2 || D,2 P!3!D,3 C,/D,/ | %17
 G,2 !2!G,3 ^F,/G,/ | A,6 | G,6 | G,=F,G,B,!1!A,G, | F,A,G,F,!1!E,D, | ^C,2 A,,2 D,2 | %23
 A,,2 =B,,2 ^C,2 | D,2 F4 | B,2 A,G,A,B, | C2 !1!C,B,,A,,G,, | F,,2 G,,2 A,,2 | %28
 !5!B,,F,B,A,G,!1!F, | !2!E,!4!^C,D,E,F,!2!G, | !1!A,2 A,,2 A,2 | D,2 F,,2 A,,2 | %32
 D,,A,,D,C,B,,A,, | G,,A,,B,,G,,A,,B,, | C,G,CB,A,G, | F,G,A,F,G,A, | B,CB,A,G,F, | E,F,G,F,G,E, | %38
 F,2 G,2 A,2 | D,2 A,,2 !fermata!D,,2 |] %40
V:4
 D,2 !1
2
!D2 C2 | x6 | x6 | x6 | x6 | x6 | x6 | x6 | x6 | x6 | x6 | x6 | x6 | x6 | x6 | x6 || x6 | %17
 !1
21
!E,6 | ^F,2 F,3 E,/F,/ | G,2 D,2 G,,2 | x6 | x6 | x6 | x6 | x2 D2 =C2 | x6 | x6 | x6 | x6 | %29
 x6 | x6 | x6 | x6 | x6 | x6 | x6 | x6 | x6 | x6 | x6 |] %40

